!!!OTL: Shanyaodan
!!!ARE: Asia, China,ÿHebei Zhaoxian
!! IV, 40
!!!SCT: C1922
!!!YEM: Copyright 1995, estate of Helmut Schaffrath.
**kern
*ICvox
*Ivox
*M2/4
*k[f#c#g#d#]
*E:
{8b
16b
16b
8b
8b
=1
8b
8e
4f#
=2
8b
8e
4f#}
=3
{8b
16b
16b
8b
8b
=4
8b
8e
4f#
=5
8b
8e
4f#}
=6
{8g#
8b
8g#
8b
=7
8ee
8cc#
4b
=8
8g#
8b
8g#
8b
=9
4g#
4b}
=10
{8e
8e
8e
8c#
=11
4B
4r}
=12
{4g#
8ee
8ee
=13
8cc#
8ee
8cc#
8b
=14
4b
4e}
=15
{8f#
8g#
8f#
8e
=16
8c#
8e
8c#
8e
=17
8f#
8e
4f#}
=18
{4b
8ee
8ee
=19
8cc#
8ee
8cc#
8b
=20
4g#
4b
=21
8e
16e
16e
8e
8c#
=22
2B}
==
!!!AGN: Xiaodiao
!!!AMT: simple duple
!!!AIN: vox
!!!EED: Helmut Schaffrath
!!!EEV: 1.0
*-
